X:76
T:Liberal Lover THO4.076
M:C|
L:1/8
Z:vmp. Peter Dunk 2010/11.from a transcription by Fynn Titford-Mock 2007
B:Thompson's Compleat Collection of 200 Favourite Country Dances Volume IV.
Q:1/2=75
K:A
(Ac)(ec) (Ac)(ec)|(dc)(BA) (GF)(GE)|(Ac)(ec) (Ac)(ec)|(dB) (AG) A4:|
|:(CE)(AE) (DF) Bc|(dc)(BA) {A}G2E2|(CE)(AE) (DF) Bc|(cB) (AG) A2A2:|
